poi/svg/1118.svg

<?xml version="1.0" encoding="UTF-8" standalone="no"?>
<svg
   xmlns:dc="http://purl.org/dc/elements/1.1/"
   xmlns:cc="http://creativecommons.org/ns#"
   xmlns:rdf="http://www.w3.org/1999/02/22-rdf-syntax-ns#"
   xmlns:svg="http://www.w3.org/2000/svg"
   xmlns="http://www.w3.org/2000/svg"
   xmlns:sodipodi="http://sodipodi.sourceforge.net/DTD/sodipodi-0.dtd"
   xmlns:inkscape="http://www.inkscape.org/namespaces/inkscape"
   inkscape:version="1.0 (4035a4fb49, 2020-05-01)"
   sodipodi:docname="1118.svg"
   id="svg20"
   version="1.2"
   viewBox="0 0 42.519639 42.519639"
   height="14.999999mm"
   width="14.999999mm">
  <metadata
     id="metadata24">
    <rdf:RDF>
      <cc:Work
         rdf:about="">
        <dc:format>image/svg+xml</dc:format>
        <dc:type
           rdf:resource="http://purl.org/dc/dcmitype/StillImage" />
        <dc:title>Qt SVG Document</dc:title>
      </cc:Work>
    </rdf:RDF>
  </metadata>
  <sodipodi:namedview
     inkscape:current-layer="svg20"
     inkscape:window-maximized="1"
     inkscape:window-y="-9"
     inkscape:window-x="-9"
     inkscape:cy="31.147004"
     inkscape:cx="30.458482"
     inkscape:zoom="12.761823"
     fit-margin-bottom="0"
     fit-margin-right="0"
     fit-margin-left="0"
     fit-margin-top="0"
     showgrid="false"
     id="namedview22"
     inkscape:window-height="1013"
     inkscape:window-width="1920"
     inkscape:pageshadow="2"
     inkscape:pageopacity="0"
     guidetolerance="10"
     gridtolerance="10"
     objecttolerance="10"
     borderopacity="1"
     bordercolor="#666666"
     pagecolor="#ffffff" />
  <title
     id="title2">Qt SVG Document</title>
  <desc
     id="desc4">Generated with Qt</desc>
  <defs
     id="defs6" />
  <g
     transform="translate(5.25984,5.25984)"
     id="g18"
     stroke-linejoin="bevel"
     stroke-linecap="square"
     fill-rule="evenodd"
     stroke-width="1"
     stroke="#000000"
     fill="none">
    <g
       id="g10"
       font-style="normal"
       font-weight="400"
       font-size="7.8px"
       font-family="'MS Shell Dlg 2'"
       stroke="none"
       fill-opacity="1"
       fill="#3d97f1">
      <path
         id="path8"
         d="M 37.2598,16 C 37.2598,27.7415 27.7415,37.2598 16,37.2598 4.25851,37.2598 -5.25984,27.7415 -5.25984,16 -5.25984,4.25851 4.25851,-5.25984 16,-5.25984 27.7415,-5.25984 37.2598,4.25851 37.2598,16"
         fill-rule="evenodd"
         vector-effect="non-scaling-stroke" />
    </g>
    <g
       id="g14"
       font-style="normal"
       font-weight="400"
       font-size="7.8px"
       font-family="'MS Shell Dlg 2'"
       transform="translate(16,12.9386)"
       stroke="none"
       fill-opacity="0.94902"
       fill="#ffffff">
      <path
         id="path12"
         d="m 0.180176,-6.22021 c 1.147784,0 2.250084,0.21695 3.306884,0.65087 1.0568,0.43392 1.98763,1.02881 2.79248,1.78467 0.80485,0.75586 1.45923,1.65169 1.96314,2.6875 0.5039,1.0358093 0.79785,2.1556 0.88183,3.35938 V 13.999 L 3.30859,7.32227 V 2.09424 C 3.30859,1.2264 2.99365,0.477539 2.36377,-0.152344 1.73389,-0.782227 0.96403,-1.09717 0.0541992,-1.09717 -0.813639,-1.09717 -1.5555,-0.782227 -2.17139,-0.152344 -2.78727,0.477539 -3.09521,1.2264 -3.09521,2.09424 V 7.32227 L -8.89014,14.083 V 2.72412 2.26221 c 0.08399,-1.20378 0.37793,-2.3235707 0.88184,-3.35938 0.50391,-1.03581 1.16178,-1.93164 1.97363,-2.6875 0.81185,-0.75586 1.74968,-1.35075 2.81348,-1.78467 1.0638,-0.43392 2.19759,-0.65087 3.401366,-0.65087 m 0,-3.04444 c 1.665694,0 3.229894,0.31494 4.692624,0.94483 1.46273,0.62988 2.72949,1.49772 3.8003,2.60351 1.0708,1.1058 1.9211,2.39006 2.551,3.85278 0.6299,1.462732 0.9448,3.01994 0.9448,4.67164 V 14.9438 H 10.5522 V 1.48535 C 10.3703,0.169596 9.97835,-1.04818 9.37646,-2.16797 8.77458,-3.28776 8.00822,-4.25708 7.07739,-5.07593 6.14657,-5.89478 5.09326,-6.53166 3.91748,-6.98657 2.7417,-7.44149 1.49593,-7.66895 0.180176,-7.66895 c -1.343746,0 -2.617516,0.22746 -3.821286,0.68238 -1.20378,0.45491 -2.27108,1.09179 -3.20191,1.91064 -0.93082,0.81885 -1.69718,1.78817 -2.29907,2.90796 -0.60189,1.11979 -0.99381,2.337566 -1.17581,3.65332 V 14.9438 h -1.6377 V 2.80811 c 0,-1.6517 0.3185,-3.208908 0.9554,-4.67164 0.6368,-1.46272 1.50468,-2.74698 2.60347,-3.85278 1.0988,-1.10579 2.37956,-1.97363 3.84229,-2.60351 1.46272,-0.62989 3.04093,-0.94483 4.734616,-0.94483 M -0.197754,9.98877 H 0.516113 L 0.64209,10.9336 H -0.344727 L -0.197754,9.98877 M 0.831055,14.8599 1.125,16.7495 h -1.931641 l 0.293946,-1.8896 h 1.34375 M -0.11377,8.26709 H 0.348145 L 0.432129,9.00195 H -0.11377 V 8.26709 M 0.348145,7.80518 H -0.0297852 V 7.32227 H 0.348145 V 7.80518 M -0.428711,12.1934 H 0.64209 l 0.188965,1.3227 h -1.34375 l 0.083984,-1.3227"
         fill-rule="evenodd"
         vector-effect="none" />
    </g>
    <g
       id="g16"
       font-style="normal"
       font-weight="400"
       font-size="7.8px"
       font-family="'MS Shell Dlg 2'"
       stroke="none"
       fill-opacity="1"
       fill="#3d97f1" />
  </g>
</svg>

<?xml version="1.0" encoding="UTF-8" standalone="no"?>
<svg width="11.2889mm" height="11.2889mm"
 viewBox="0 0 32 32"
 xmlns="http://www.w3.org/2000/svg" xmlns:xlink="http://www.w3.org/1999/xlink"  version="1.2" baseProfile="tiny">
<title>Qt SVG Document</title>
<desc>Generated with Qt</desc>
<defs>
</defs>
<g fill="none" stroke="black" stroke-width="1" fill-rule="evenodd" stroke-linecap="square" stroke-linejoin="bevel" >

<g fill="#3d97f1" fill-opacity="1" stroke="none" transform="matrix(1,0,0,1,0,0)"
font-family="MS Shell Dlg 2" font-size="7.8" font-weight="400" font-style="normal" 
>
<path vector-effect="non-scaling-stroke" fill-rule="evenodd" d="M37.2598,16 C37.2598,27.7415 27.7415,37.2598 16,37.2598 C4.25851,37.2598 -5.25984,27.7415 -5.25984,16 C-5.25984,4.25851 4.25851,-5.25984 16,-5.25984 C27.7415,-5.25984 37.2598,4.25851 37.2598,16 "/>
</g>

<g fill="#ffffff" fill-opacity="0.94902" stroke="none" transform="matrix(1,0,0,1,16,12.9386)"
font-family="MS Shell Dlg 2" font-size="7.8" font-weight="400" font-style="normal" 
>
<path vector-effect="none" fill-rule="evenodd" d="M0.180176,-6.22021 C1.32796,-6.22021 2.43026,-6.00326 3.48706,-5.56934 C4.54386,-5.13542 5.47469,-4.54053 6.27954,-3.78467 C7.08439,-3.02881 7.73877,-2.13298 8.24268,-1.09717 C8.74658,-0.0613607 9.04053,1.05843 9.12451,2.26221 L9.12451,13.999 L3.30859,7.32227 L3.30859,2.09424 C3.30859,1.2264 2.99365,0.477539 2.36377,-0.152344 C1.73389,-0.782227 0.96403,-1.09717 0.0541992,-1.09717 C-0.813639,-1.09717 -1.5555,-0.782227 -2.17139,-0.152344 C-2.78727,0.477539 -3.09521,1.2264 -3.09521,2.09424 L-3.09521,7.32227 L-8.89014,14.083 L-8.89014,2.72412 L-8.89014,2.26221 C-8.80615,1.05843 -8.51221,-0.0613607 -8.0083,-1.09717 C-7.50439,-2.13298 -6.84652,-3.02881 -6.03467,-3.78467 C-5.22282,-4.54053 -4.28499,-5.13542 -3.22119,-5.56934 C-2.15739,-6.00326 -1.0236,-6.22021 0.180176,-6.22021 M0.180176,-9.26465 C1.84587,-9.26465 3.41007,-8.94971 4.8728,-8.31982 C6.33553,-7.68994 7.60229,-6.8221 8.6731,-5.71631 C9.7439,-4.61051 10.5942,-3.32625 11.2241,-1.86353 C11.854,-0.400798 12.1689,1.15641 12.1689,2.80811 L12.1689,14.9438 L10.5522,14.9438 L10.5522,1.48535 C10.3703,0.169596 9.97835,-1.04818 9.37646,-2.16797 C8.77458,-3.28776 8.00822,-4.25708 7.07739,-5.07593 C6.14657,-5.89478 5.09326,-6.53166 3.91748,-6.98657 C2.7417,-7.44149 1.49593,-7.66895 0.180176,-7.66895 C-1.16357,-7.66895 -2.43734,-7.44149 -3.64111,-6.98657 C-4.84489,-6.53166 -5.91219,-5.89478 -6.84302,-5.07593 C-7.77384,-4.25708 -8.5402,-3.28776 -9.14209,-2.16797 C-9.74398,-1.04818 -10.1359,0.169596 -10.3179,1.48535 L-10.3179,14.9438 L-11.9556,14.9438 L-11.9556,2.80811 C-11.9556,1.15641 -11.6371,-0.400798 -11.0002,-1.86353 C-10.3634,-3.32625 -9.49552,-4.61051 -8.39673,-5.71631 C-7.29793,-6.8221 -6.01717,-7.68994 -4.55444,-8.31982 C-3.09172,-8.94971 -1.51351,-9.26465 0.180176,-9.26465 M-0.197754,9.98877 L0.516113,9.98877 L0.64209,10.9336 L-0.344727,10.9336 L-0.197754,9.98877 M0.831055,14.8599 L1.125,16.7495 L-0.806641,16.7495 L-0.512695,14.8599 L0.831055,14.8599 M-0.11377,8.26709 L0.348145,8.26709 L0.432129,9.00195 L-0.11377,9.00195 L-0.11377,8.26709 M0.348145,7.80518 L-0.0297852,7.80518 L-0.0297852,7.32227 L0.348145,7.32227 L0.348145,7.80518 M-0.428711,12.1934 L0.64209,12.1934 L0.831055,13.5161 L-0.512695,13.5161 L-0.428711,12.1934"/>
</g>

<g fill="#3d97f1" fill-opacity="1" stroke="none" transform="matrix(1,0,0,1,0,0)"
font-family="MS Shell Dlg 2" font-size="7.8" font-weight="400" font-style="normal" 
>
</g>
</g>
</svg>
